public/avatar/shoe/134.svg

<svg xmlns:xlink="http://www.w3.org/1999/xlink" height="38.3" width="36.05" xmlns="http://www.w3.org/2000/svg"><use height="18.35" transform="translate(10.4 12.05)" width="21.15" xlink:href="#a"/><defs><g id="a" fill-rule="evenodd"><path d="M6.2 2.1Q9.45 5 5.9 9.85L4 12.15Q2.2 14.7-1.9 15.4q-5.9.7-9.9-2.05-.95-.35-1.25-1.15l-.15-.7q-.55-1.35.35-2.85l1-1.25q3.75-2.05 7.8-3.7Q4.2.3 6.2 2.1" fill="#0b2001" transform="translate(13.4 2.8)"/><path d="M6.15 2.85q2.3 2.2-.85 6.35-1.35 1-1.9 2.45-1.45 2.15-5 2.95-5.45 1.25-10.35-1.8-.9-.85-.65-2.65l.35-1.65q4.05-1.95 8.4-3.6 8.65-3.4 10-2.05" fill="#43751c" transform="translate(13.4 2.8)"/><path d="M6.95 4.3 6.8 5.55q-.45 1.5-2.15 2.7l-1.15 1.8q-.7 2.05-3.7 3.1-4.45 1.4-8.6-.05-5.1-1.15-3.4-4.6-.7 2.7 3.25 4.05Q-3.3 14.2 1.1 12L3 9.85l1.3-1.9q2.35-1.7 2.65-3.65" fill="#023a28" transform="translate(13.4 2.8)"/><path d="M6.15 2.85Q8.6 5.2 4.3 8.05L3 9.9q-1.4 2.25-3.2 2.6-3.35 1.5-8.8 0-5.4-1.5-2.5-5.45V7l8-2.8q8.35-2.6 9.65-1.35" fill="#91f219" transform="translate(13.4 2.8)"/><path d="M.1-2.8q4.75.65 5.2 2.15Q7.55 3.9 5 6.6L3.4 7.8q-2.3 4.5-6.05 4.4-3.3.95-5.25-.9-3.45-.05-4.2-2.35-.3-.9.8-2.45l3.2-3.65 1.5-3q1.3-2.15 4.1-2.6L.1-2.8" fill="#21100a" transform="translate(13.4 2.8)"/><path d="m-3.1-1.8 1.75-.1q4.7-.35 6.3 2.65.85 1.45.75 3Q5.25 5 3.95 6.15 2.6 7.2 2.5 7.65q-.9 2.45-3.8 3.4-5.45 1.7-5.8-.95-1 .65-2.3.3-2.7-.2-1.4-3.25l2.3-2.5q.9-.85 1.4-2l.7-1.8Q-5.1-1.3-3.1-1.8" fill="#c98036" transform="translate(13.4 2.8)"/><path d="M-7.35 10.45q-.9-1.95.35-3.1l-.15 1.55q-.05 1.6.45 2.05l-.65-.5" fill="#21100a" transform="translate(13.4 2.8)"/><path d="m-7.5 9.5-.3-1.1q-.25-1.1.15-1.3l.55.55-.4 1.85" fill="#21100a" transform="translate(13.4 2.8)"/><path d="M2.25-1.55Q4.1-.8 4.8.45-7 .6-4.6-1.2l1.35-.5L.5-2l1.75.45M1.3 6.7l.25-.1Q2.8 6.4 5.3 2q.7 1-.1 2.45l-2.7 3Q-.3 12.4-5 11.25q-.65-.2-.55-1.2l.2-1.05q1.5 1.2 4.2 0-.35 1 .1-.15L1.3 6.7" fill="#965112" transform="translate(13.4 2.8)"/><path d="m.6 8.8-1.7 1-.7-.1.75-.85q.35-2 3.8-3.15l.85-.4-3 3.5m-8.4-.55.35 1.95q-3.25 1-3.75-1.05 1.3.75 3.4-.9" fill="#965112" transform="translate(13.4 2.8)"/><path d="M1.1 10.95Q-.3 9.55-2.1 8.5q-3.55-2.2-5-.55L-8.5 6.8q-1.55-1.1-2.5-.65v-1.1q.2-1.05.9-1.15l1.2-.1q1.45.1 2.8 1.15l2.9-.45Q.2 4.9 3 8.85q-.25 1.5-1.9 2.1" transform="translate(13.4 2.8)"/><path d="M1.2 10.65Q.05 9.25-1.6 8.2-4.75 6-7.05 7.4l-1.3-1q-1.5-.9-2.4-.55L-9.6 4.2l1.35.15q1.45.3 2 1l2.85-.3q3.45.35 5.95 3.8.05 1.3-1.35 1.8" fill="#91f219" transform="translate(13.4 2.8)"/><path d="m-11 5.95.85.15-.6.4-.25-.55" transform="translate(13.4 2.8)"/><path d="M2.5 8.95q-.25 1.35-1.3 1.45-3.4-2.95-4.75-3.5 3.3 1.1 4.65.3l1.4 1.75M-6.25 5.3l-.8 2.05q-.7-.55-1.5-1.05-1-.5-1.55-.6l.25-.05q1.05-.1 1.8.3.35.55 1.8-.65" fill="#0b2001" transform="translate(13.4 2.8)"/><path d="M-7.35 5.25q-1.2-.75-2.2-.5l-.8.45.15-.3.9-.5q1.35-.05 1.95.85m1.4.45 1.2-.4q1.35-.35 2.35 0l.4.55-3.95-.15" fill="#fff" transform="translate(13.4 2.8)"/></g></defs></svg>

<?xml version="1.0" encoding="UTF-8" standalone="no"?>
<svg xmlns:xlink="http://www.w3.org/1999/xlink" height="38.3px" width="36.05px" xmlns="http://www.w3.org/2000/svg">
  <g transform="matrix(1.0, 0.0, 0.0, 1.0, 23.8, 14.85)">
    <use height="18.35" transform="matrix(1.0, 0.0, 0.0, 1.0, -13.4, -2.8)" width="21.15" xlink:href="#shape0"/>
  </g>
  <defs>
    <g id="shape0" transform="matrix(1.0, 0.0, 0.0, 1.0, 13.4, 2.8)">
      <path d="M6.2 2.1 Q9.45 5.0 5.9 9.85 L4.0 12.15 Q2.2 14.7 -1.9 15.4 -7.8 16.1 -11.8 13.35 -12.75 13.0 -13.05 12.2 L-13.2 11.5 Q-13.75 10.15 -12.85 8.65 L-11.85 7.4 Q-8.1 5.35 -4.05 3.7 4.2 0.3 6.2 2.1" fill="#0b2001" fill-rule="evenodd" stroke="none"/>
      <path d="M6.15 2.85 Q8.45 5.05 5.3 9.2 3.95 10.2 3.4 11.65 1.95 13.8 -1.6 14.6 -7.05 15.85 -11.95 12.8 -12.85 11.95 -12.6 10.15 L-12.25 8.5 Q-8.2 6.55 -3.85 4.9 4.8 1.5 6.15 2.85" fill="#43751c" fill-rule="evenodd" stroke="none"/>
      <path d="M6.95 4.3 L6.8 5.55 Q6.35 7.05 4.65 8.25 L3.5 10.05 Q2.8 12.1 -0.2 13.15 -4.65 14.55 -8.8 13.1 -13.9 11.95 -12.2 8.5 -12.9 11.2 -8.95 12.55 -3.3 14.2 1.1 12.0 L3.0 9.85 4.3 7.95 Q6.65 6.25 6.95 4.3" fill="#023a28" fill-rule="evenodd" stroke="none"/>
      <path d="M6.15 2.85 Q8.6 5.2 4.3 8.05 L3.0 9.9 Q1.6 12.15 -0.2 12.5 -3.55 14.0 -9.0 12.5 -14.4 11.0 -11.5 7.05 L-11.5 7.0 -3.5 4.2 Q4.85 1.6 6.15 2.85" fill="#91f219" fill-rule="evenodd" stroke="none"/>
      <path d="M0.1 -2.8 Q4.85 -2.15 5.3 -0.65 7.55 3.9 5.0 6.6 L3.4 7.8 Q1.1 12.3 -2.65 12.2 -5.95 13.15 -7.9 11.3 -11.35 11.25 -12.1 8.95 -12.4 8.05 -11.3 6.5 L-8.1 2.85 -6.6 -0.15 Q-5.3 -2.3 -2.5 -2.75 L0.1 -2.8" fill="#21100a" fill-rule="evenodd" stroke="none"/>
      <path d="M-3.1 -1.8 L-1.35 -1.9 Q3.35 -2.25 4.95 0.75 5.8 2.2 5.7 3.75 5.25 5.0 3.95 6.15 2.6 7.2 2.5 7.65 1.6 10.1 -1.3 11.05 -6.75 12.75 -7.1 10.1 -8.1 10.75 -9.4 10.4 -12.1 10.2 -10.8 7.15 L-8.5 4.65 Q-7.6 3.8 -7.1 2.65 L-6.4 0.85 Q-5.1 -1.3 -3.1 -1.8" fill="#c98036" fill-rule="evenodd" stroke="none"/>
      <path d="M-7.35 10.45 Q-8.25 8.5 -7.0 7.35 L-7.15 8.9 Q-7.2 10.5 -6.7 10.95 L-7.35 10.45" fill="#21100a" fill-rule="evenodd" stroke="none"/>
      <path d="M-7.5 9.5 L-7.8 8.4 Q-8.05 7.3 -7.65 7.1 L-7.1 7.65 -7.5 9.5" fill="#21100a" fill-rule="evenodd" stroke="none"/>
      <path d="M2.25 -1.55 Q4.1 -0.8 4.8 0.45 -7.0 0.6 -4.6 -1.2 L-3.25 -1.7 0.5 -2.0 2.25 -1.55" fill="#965112" fill-rule="evenodd" stroke="none"/>
      <path d="M1.3 6.7 L1.55 6.6 Q2.8 6.4 5.3 2.0 6.0 3.0 5.2 4.45 L2.5 7.45 Q-0.3 12.4 -5.0 11.25 -5.65 11.05 -5.55 10.05 L-5.35 9.0 Q-3.85 10.2 -1.15 9.0 -1.5 10.0 -1.05 8.85 L1.3 6.7" fill="#965112" fill-rule="evenodd" stroke="none"/>
      <path d="M0.6 8.8 L-1.1 9.8 -1.8 9.7 -1.05 8.85 Q-0.7 6.85 2.75 5.7 L3.6 5.3 0.6 8.8" fill="#965112" fill-rule="evenodd" stroke="none"/>
      <path d="M-7.8 8.25 L-7.45 10.2 Q-10.7 11.2 -11.2 9.15 -9.9 9.9 -7.8 8.25" fill="#965112" fill-rule="evenodd" stroke="none"/>
      <path d="M1.1 10.95 Q-0.3 9.55 -2.1 8.5 -5.65 6.3 -7.1 7.95 L-8.5 6.8 Q-10.05 5.7 -11.0 6.15 L-11.0 5.05 Q-10.8 4.0 -10.1 3.9 L-8.9 3.8 Q-7.45 3.9 -6.1 4.95 L-3.2 4.5 Q0.2 4.9 3.0 8.85 2.75 10.35 1.1 10.95" fill="#000000" fill-rule="evenodd" stroke="none"/>
      <path d="M1.2 10.65 Q0.05 9.25 -1.6 8.2 -4.75 6.0 -7.05 7.4 L-8.35 6.4 Q-9.85 5.5 -10.75 5.85 L-9.6 4.2 -8.25 4.35 Q-6.8 4.65 -6.25 5.35 L-3.4 5.05 Q0.05 5.4 2.55 8.85 2.6 10.15 1.2 10.65" fill="#91f219" fill-rule="evenodd" stroke="none"/>
      <path d="M-11.0 5.95 L-10.15 6.1 -10.75 6.5 -11.0 5.95" fill="#000000" fill-rule="evenodd" stroke="none"/>
      <path d="M2.5 8.95 Q2.25 10.3 1.2 10.4 -2.2 7.45 -3.55 6.9 -0.25 8.0 1.1 7.2 L2.5 8.95" fill="#0b2001" fill-rule="evenodd" stroke="none"/>
      <path d="M-6.25 5.3 L-7.05 7.35 Q-7.75 6.8 -8.55 6.3 -9.55 5.8 -10.1 5.7 L-9.85 5.65 Q-8.8 5.55 -8.05 5.95 -7.7 6.5 -6.25 5.3" fill="#0b2001" fill-rule="evenodd" stroke="none"/>
      <path d="M-7.35 5.25 Q-8.55 4.5 -9.55 4.75 L-10.35 5.2 -10.2 4.9 -9.3 4.4 Q-7.95 4.35 -7.35 5.25" fill="#ffffff" fill-rule="evenodd" stroke="none"/>
      <path d="M-5.95 5.7 L-4.75 5.3 Q-3.4 4.95 -2.4 5.3 L-2.0 5.85 -5.95 5.7" fill="#ffffff" fill-rule="evenodd" stroke="none"/>
    </g>
  </defs>
</svg>
